X: 1
T: Coleraine
B: Kerr's Violin IV
Z: John Chambers <jc:trillian.mit.edu>
R: jig
M: 6/8
L: 1/8
K: Bm
   "F7"F | "Bm"FBB Bcd | "F7"cff f2e | "Bm"dBB Bcd | "F7"c^AF F2F \
| "Bm"FBB Bcd | "F7"cff f2e | "Bm"dcB "F7"c^AF | "Bm"B3- B2 :|
|: "A7"c | "D"d2d ded | "A"cea "(F)"a2^a | "Bm"bfe dcB | "F7"^AcA F^GA \
| "Bm"B^AB "F7"cBc | "Bm"def "Em"gfe | "Bm"dcB "F7"c^AF | "Bm"B3- B2 :|
